X:960
T: Hawke's HP
T: Cornph\'iopa U\'i Eachaigh
S: B.Breathnach: "Ceol Rince na hEireann" II/311
Z: B.Black
L: 1/8
M: 4/4
R: hornpipe
K: Ador
ed|c2 EF G2 (3EFG|ABAG A2 (3Bcd|efed cAdc|AGEF G2 (3EFG|
AGAB cBcA|dcde f2 (3efg|aged (3cde dc|A2 A2 A2 :|
ef|gfga gfed|cdef g2 ed|ea a2 ba a2|eaab agef|
geaf gfed|cdef g2 (3efg|afge fgec|A2 A2 A2 :|

